X:1
T:Tahiti, LMD
T:Tahiti, LMD
T:Elizabeth Manford Clark, 1878
T:Public Domain Courtesy of the Cyber Hymnal™
C:Elizabeth Manford Clark, 1878
Z:Public Domain
Z:Courtesy of the Cyber Hymnal™
%%score ( 1 2 ) ( 3 4 )
L:1/8
Q:1/4=130
M:3/2
K:Bb
V:1 treble 
V:2 treble 
V:3 bass 
V:4 bass 
V:1
 [DF]2 [DF]2 [DF]2 | [DF]6 [DF]2 [EG]2 [DF]2 | [DB]6 [FB]2 [FA]2 [FB]2 | [Fc]6 [Fc]2 [FB]2 [Fc]2 | %4
 [Fd]6 [Fd]2 [Fd]2 [Fd]2 | [DB]6 [DB]2 [EB]2 [FB]2 | [EG]6 [EG]2 F2 [DF]2 | [DF]6 F2 [EG]2 [EA]2 | %8
 [DB]6 [CF]2 [CF]2 [CF]2 | [EA]6 [EF]2 [EF]2 [EF]2 | [DB]6 [DB]2 [CA]2 [DB]2 | %11
 [Ec]6 F2 [EG]2 [EA]2 | [DB]6 [Fd]2 [Fd]2 [Fd]2 | [DB]6 [DB]2 [EB]2 [FB]2 | %14
 [EG]6 [GB]2 [FA]2 [EG]2 | F2 [DB]2 [Ec]4 [EA]4 | [DB]6 |] %17
V:2
 x6 | x12 | x12 | x12 | x12 | x12 | x8 F2 x2 | x6 F2 x4 | x12 | x12 | x12 | x6 F2 x4 | x12 | x12 | %14
 x12 | F2 x10 | x6 |] %17
V:3
 [B,,B,]2 [B,,B,]2 [B,,B,]2 | [B,,B,]6 [B,,B,]2 [B,,B,]2 [B,,B,]2 | [B,,F,]6 [F,D]2 [F,C]2 [F,D]2 | %3
 [F,C]6 [E,A,]2 [D,B,]2 [D,A,]2 | [B,,B,]6 [B,,B,]2 [B,,B,]2 [B,,B,]2 | %5
 [B,,B,]6 [B,,B,]2 [C,B,]2 [D,B,]2 | [E,B,]6 [E,B,]2 [D,B,]2 [B,,B,]2 | %7
 [F,A,]6 [D,B,]2 [E,B,]2 F,2 | [B,,F,]6 [F,A,]2 [F,A,]2 [F,A,]2 | [F,C]6 [F,A,]2 [F,A,]2 [F,A,]2 | %10
 [B,,B,]6 F,2 F,2 F,2 | [F,A,]6 [F,A,]2 [F,B,]2 F,2 | [B,,F,]6 [B,,B,]2 [B,,B,]2 [B,,B,]2 | %13
 [B,,B,]6 [B,,B,]2 [C,B,]2 [D,B,]2 | [E,B,]6 [E,B,]2 [E,B,]2 [E,B,]2 | %15
 [D,B,]2 [B,,B,]2 [E,G,]4 F,4 | [B,,F,]6 |] %17
V:4
 x6 | x12 | x12 | x12 | x12 | x12 | x12 | x10 F,2 | x12 | x12 | x6 F,2 F,2 F,2 | x10 F,2 | x12 | %13
 x12 | x12 | x8 F,4 | x6 |] %17

